polaris-icons/icons/newicons/OrganizationMajor.svg

<svg width="20" height="20" viewBox="0 0 20 20" fill="none" xmlns="http://www.w3.org/2000/svg">
<path d="M7 6.5C7 6.08579 6.66421 5.75 6.25 5.75C5.83579 5.75 5.5 6.08579 5.5 6.5V7C5.5 7.41421 5.83579 7.75 6.25 7.75C6.66421 7.75 7 7.41421 7 7V6.5Z" fill="black"/>
<path d="M6.25 9C6.66421 9 7 9.33579 7 9.75V10.25C7 10.6642 6.66421 11 6.25 11C5.83579 11 5.5 10.6642 5.5 10.25V9.75C5.5 9.33579 5.83579 9 6.25 9Z" fill="black"/>
<path d="M7 13C7 12.5858 6.66421 12.25 6.25 12.25C5.83579 12.25 5.5 12.5858 5.5 13V13.5C5.5 13.9142 5.83579 14.25 6.25 14.25C6.66421 14.25 7 13.9142 7 13.5V13Z" fill="black"/>
<path d="M8.75 5.75C9.16421 5.75 9.5 6.08579 9.5 6.5V7C9.5 7.41421 9.16421 7.75 8.75 7.75C8.33579 7.75 8 7.41421 8 7V6.5C8 6.08579 8.33579 5.75 8.75 5.75Z" fill="black"/>
<path d="M9.5 9.75C9.5 9.33579 9.16421 9 8.75 9C8.33579 9 8 9.33579 8 9.75V10.25C8 10.6642 8.33579 11 8.75 11C9.16421 11 9.5 10.6642 9.5 10.25V9.75Z" fill="black"/>
<path d="M8.75 12.25C9.16421 12.25 9.5 12.5858 9.5 13V13.5C9.5 13.9142 9.16421 14.25 8.75 14.25C8.33579 14.25 8 13.9142 8 13.5V13C8 12.5858 8.33579 12.25 8.75 12.25Z" fill="black"/>
<path d="M13.75 9C14.1642 9 14.5 9.33579 14.5 9.75V10.25C14.5 10.6642 14.1642 11 13.75 11C13.3358 11 13 10.6642 13 10.25V9.75C13 9.33579 13.3358 9 13.75 9Z" fill="black"/>
<path d="M14.5 13C14.5 12.5858 14.1642 12.25 13.75 12.25C13.3358 12.25 13 12.5858 13 13V13.5C13 13.9142 13.3358 14.25 13.75 14.25C14.1642 14.25 14.5 13.9142 14.5 13.5V13Z" fill="black"/>
<path fill-rule="evenodd" clip-rule="evenodd" d="M3 5C3 3.89543 3.89543 3 5 3H10C11.1046 3 12 3.89543 12 5V6.25H15.25C16.2165 6.25 17 7.0335 17 8V15.25C17 16.2165 16.2165 17 15.25 17H10.5V16.937C10.3402 16.9781 10.1726 17 10 17H5C3.89543 17 3 16.1046 3 15V5ZM5 4.5H10C10.2761 4.5 10.5 4.72386 10.5 5V15C10.5 15.2761 10.2761 15.5 10 15.5H5C4.72386 15.5 4.5 15.2761 4.5 15V5C4.5 4.72386 4.72386 4.5 5 4.5ZM11.937 15.5H15.25C15.3881 15.5 15.5 15.3881 15.5 15.25V8C15.5 7.86193 15.3881 7.75 15.25 7.75H12V15C12 15.1726 11.9781 15.3402 11.937 15.5Z" fill="black"/>
</svg>

<svg viewBox="0 0 20 20" fill="none" xmlns="http://www.w3.org/2000/svg"><path d="M7 6.5a.75.75 0 0 0-1.5 0v.5a.75.75 0 0 0 1.5 0v-.5Z" fill="#5C5F62"/><path d="M6.25 9a.75.75 0 0 1 .75.75v.5a.75.75 0 0 1-1.5 0v-.5a.75.75 0 0 1 .75-.75Z" fill="#5C5F62"/><path d="M7 13a.75.75 0 0 0-1.5 0v.5a.75.75 0 0 0 1.5 0v-.5Z" fill="#5C5F62"/><path d="M8.75 5.75a.75.75 0 0 1 .75.75v.5a.75.75 0 0 1-1.5 0v-.5a.75.75 0 0 1 .75-.75Z" fill="#5C5F62"/><path d="M9.5 9.75a.75.75 0 0 0-1.5 0v.5a.75.75 0 0 0 1.5 0v-.5Z" fill="#5C5F62"/><path d="M8.75 12.25a.75.75 0 0 1 .75.75v.5a.75.75 0 0 1-1.5 0v-.5a.75.75 0 0 1 .75-.75Z" fill="#5C5F62"/><path d="M13.75 9a.75.75 0 0 1 .75.75v.5a.75.75 0 0 1-1.5 0v-.5a.75.75 0 0 1 .75-.75Z" fill="#5C5F62"/><path d="M14.5 13a.75.75 0 0 0-1.5 0v.5a.75.75 0 0 0 1.5 0v-.5Z" fill="#5C5F62"/><path fill-rule="evenodd" clip-rule="evenodd" d="M3 5a2 2 0 0 1 2-2h5a2 2 0 0 1 2 2v1.25h3.25c.966 0 1.75.784 1.75 1.75v7.25a1.75 1.75 0 0 1-1.75 1.75h-4.75v-.063c-.16.041-.327.063-.5.063h-5a2 2 0 0 1-2-2v-10Zm2-.5h5a.5.5 0 0 1 .5.5v10a.5.5 0 0 1-.5.5h-5a.5.5 0 0 1-.5-.5v-10a.5.5 0 0 1 .5-.5Zm6.937 11h3.313a.25.25 0 0 0 .25-.25v-7.25a.25.25 0 0 0-.25-.25h-3.25v7.25c0 .173-.022.34-.063.5Z" fill="#5C5F62"/></svg>
